!!! OTL: Berkowitz199
!!! Chapter: 1
!!! Section: II
!!! Page: 46
!!! Mode: 
!!! Encoder: DJB
**kern
*staff1
*I"Piano
=1-
*clefG2
*k[b-e-a-d-]
*A-:
*M2/4
8e-/L
8e-/J
8a-/L
8a-/J
=2
8e-/L
8b-/J
8e-/L
8b-/J
=3
8e-/L
8b-/J
8a-/L
8g/J
=4
8cc/L
8f/J
8cc/L
8f/J
=5
8.dd-\L
16b-\Jk
8e-/L
8e-/J
=6
8.cc/L
16a-/Jk
8e-/L
8e-/J
=7
8b-/L
8e-/J
8ee-\L
8a-\J
=8
8b-\L
8ee-\J
4a-/
==
*-
